X: 24803
T: Maggie Lynn's
R: reel
M: 4/4
K: Gmajor
B|:dBBA BedB|AGED EGGA|B/c/def g3 b|aged efge|
d2 B/c/d gfed|edBG AGEF|G2 B/c/d gedB|1 AGED EGGe:|2 AGED EGGA||
Bded Bdge|dBGB AE~E2|B2 ed Bdga|bgag ea~a2|
B/c/ded Bdga|bgag egge|dBAG ~G2 EG|1 DEGA BGGA:|2 DEGA BGGe||

